gama.ui.shared/icons_svg/dark/editor/local.menu.svg

<svg height="24.75" viewBox="13.787 -3263.623 24.75 24.75" width="24.75" xmlns="http://www.w3.org/2000/svg"><path d="m32.396737-3258.248c-.276142 0-.499997.2238-.499997.5v1c0 .276.223855.5.499997.5h.999999c.276142 0 .499999-.224.499999-.5v-1c0-.2762-.223857-.5-.499999-.5zm0-1h.999999c.828424 0 1.499998.6715 1.499998 1.5v1c0 .8284-.671574 1.5-1.499998 1.5h-.999999c-.828427 0-1.499997-.6716-1.499997-1.5v-1c0-.8285.67157-1.5 1.499997-1.5zm0 7c-.276142 0-.499997.2238-.499997.5v1c0 .276.223855.5.499997.5h.999999c.276142 0 .499999-.224.499999-.5v-1c0-.2762-.223857-.5-.499999-.5zm0-1h.999999c.828424 0 1.499998.6715 1.499998 1.5v1c0 .8284-.671574 1.5-1.499998 1.5h-.999999c-.828427 0-1.499997-.6716-1.499997-1.5v-1c0-.8285.67157-1.5 1.499997-1.5zm0 7c-.276142 0-.499997.2238-.499997.5v1c0 .276.223855.5.499997.5h.999999c.276142 0 .499999-.224.499999-.5v-1c0-.2762-.223857-.5-.499999-.5zm0-1h.999999c.828424 0 1.499998.6715 1.499998 1.5v1c0 .8284-.671574 1.5-1.499998 1.5h-.999999c-.828427 0-1.499997-.6716-1.499997-1.5v-1c0-.8285.67157-1.5 1.499997-1.5z" fill="#c0e0ff"/></svg>

<?xml version="1.0" encoding="UTF-8" standalone="no"?>
<!DOCTYPE svg PUBLIC "-//W3C//DTD SVG 1.1//EN" "http://www.w3.org/Graphics/SVG/1.1/DTD/svg11.dtd">
<svg xmlns="http://www.w3.org/2000/svg" xmlns:dc="http://purl.org/dc/elements/1.1/" version="1.1" xmlns:xl="http://www.w3.org/1999/xlink" viewBox="13.78704 -3263.623 24.75 24.75" width="24.75" height="24.75">
  <defs/>
  <g id="SOURCES" stroke-dasharray="none" stroke-opacity="1" stroke="none" fill="none" fill-opacity="1">
    <title>SOURCES</title>
    <g id="SOURCES_Dark">
      <title>Dark</title>
      <g id="Graphic_12185"/>
      <g id="Graphic_12188">
        <path d="M 32.396737 -3258.248 C 32.120595 -3258.248 31.89674 -3258.0242 31.89674 -3257.748 L 31.89674 -3256.748 C 31.89674 -3256.472 32.120595 -3256.248 32.396737 -3256.248 L 33.396736 -3256.248 C 33.672878 -3256.248 33.896735 -3256.472 33.896735 -3256.748 L 33.896735 -3257.748 C 33.896735 -3258.0242 33.672878 -3258.248 33.396736 -3258.248 Z M 32.396737 -3259.248 L 33.396736 -3259.248 C 34.22516 -3259.248 34.896734 -3258.5765 34.896734 -3257.748 L 34.896734 -3256.748 C 34.896734 -3255.9196 34.22516 -3255.248 33.396736 -3255.248 L 32.396737 -3255.248 C 31.56831 -3255.248 30.89674 -3255.9196 30.89674 -3256.748 L 30.89674 -3257.748 C 30.89674 -3258.5765 31.56831 -3259.248 32.396737 -3259.248 Z M 32.396737 -3252.248 C 32.120595 -3252.248 31.89674 -3252.0242 31.89674 -3251.748 L 31.89674 -3250.748 C 31.89674 -3250.472 32.120595 -3250.248 32.396737 -3250.248 L 33.396736 -3250.248 C 33.672878 -3250.248 33.896735 -3250.472 33.896735 -3250.748 L 33.896735 -3251.748 C 33.896735 -3252.0242 33.672878 -3252.248 33.396736 -3252.248 Z M 32.396737 -3253.248 L 33.396736 -3253.248 C 34.22516 -3253.248 34.896734 -3252.5765 34.896734 -3251.748 L 34.896734 -3250.748 C 34.896734 -3249.9196 34.22516 -3249.248 33.396736 -3249.248 L 32.396737 -3249.248 C 31.56831 -3249.248 30.89674 -3249.9196 30.89674 -3250.748 L 30.89674 -3251.748 C 30.89674 -3252.5765 31.56831 -3253.248 32.396737 -3253.248 Z M 32.396737 -3246.248 C 32.120595 -3246.248 31.89674 -3246.0242 31.89674 -3245.748 L 31.89674 -3244.748 C 31.89674 -3244.472 32.120595 -3244.248 32.396737 -3244.248 L 33.396736 -3244.248 C 33.672878 -3244.248 33.896735 -3244.472 33.896735 -3244.748 L 33.896735 -3245.748 C 33.896735 -3246.0242 33.672878 -3246.248 33.396736 -3246.248 Z M 32.396737 -3247.248 L 33.396736 -3247.248 C 34.22516 -3247.248 34.896734 -3246.5765 34.896734 -3245.748 L 34.896734 -3244.748 C 34.896734 -3243.9196 34.22516 -3243.248 33.396736 -3243.248 L 32.396737 -3243.248 C 31.56831 -3243.248 30.89674 -3243.9196 30.89674 -3244.748 L 30.89674 -3245.748 C 30.89674 -3246.5765 31.56831 -3247.248 32.396737 -3247.248 Z" fill="#c0e0ff"/>
      </g>
    </g>
  </g>
</svg>
